X: 8742
T: Crystal Year, The
R: slide
M: 12/8
K: Eminor
DEF EBB DEF EBB|DAF Gdd zAF Gd2|
Bcc cAG cEB EAG|Eee dAG A2A GF2|
EEF EBB DEF EBB|DAF Gdd zAF Gd2|
Bcc cAG cEB EAG|Eee dAG A5zE|
ABe ABe gAB efg|fAA fAf eGG E G2|
ABe ABe gAB efg|fAA fAf eG g2 f2|
ABE ABe g4 gg|fAA fAf eGG EG2|
ABe ABe gAB ef/g/a|fAA fAf e2g2f2|

